packages/core/src/svgs/tokens/mono/COW.svg

<svg width="24" height="24" viewBox="0 0 24 24" fill="none" xmlns="http://www.w3.org/2000/svg">
<path d="M21.2778 9.05559L18.1 8.55003L20.5278 7.55003L21.0722 5.40003L20.4333 4.28891L17.3112 3.38892L18.9 5.6278L18.9112 5.64447L17.6722 5.94448L14.6055 3.8778L12.0055 4.18335L9.40557 3.8778L6.3389 5.94448L5.1 5.64447L5.10557 5.6278L6.70001 3.38892L3.57223 4.28336L2.92779 5.40003L3.47223 7.55003L5.90001 8.55003L2.72223 9.05559L2 10.9723L4.17778 12.0056L6.23334 11.2944L6.52779 13.45L7.88335 16.5444L8.5389 18.2222L11.7222 20.4223L12 20.6056V20.6112H12.0055L12.2778 20.4223L15.4611 18.2222L16.1222 16.5444L17.4723 13.45L17.7667 11.2944L19.8222 12.0056L22 10.9723L21.2778 9.05559ZM3.78334 4.55558L5.91112 3.94447L4.75557 5.5667L3.35 5.31113L3.78334 4.55002V4.55558ZM3.31668 5.62224L4.55556 5.85003L3.68335 7.06669L3.31668 5.62224ZM6.20556 10.9723L4.20001 11.6667L2.40556 10.8167L2.96111 9.33896L6.20556 8.81668V10.9723ZM6.20556 8.33342L3.86112 7.36669L4.90001 5.92224L6.20556 6.23892V8.33342ZM15.1556 9.17226L14.85 10.1722H9.15001L8.85001 9.17226L12 4.70558L15.1556 9.17226ZM10.0723 13.25L9.25001 10.4833H14.7501L13.9278 13.25H10.0723ZM13.8333 13.5667L12.8111 16.2167L12.0055 16.8723L11.1945 16.2167L10.1722 13.5667H13.8333ZM6.52779 7.97225V6.20003L9.48334 4.20558L11.7666 4.47224H11.7834L11.7778 4.48335L8.56112 9.01113L6.52779 7.97225ZM8.17779 16.4278L6.84446 13.3667L6.54446 11.2001L8.94446 10.5834L9.77773 13.389L9.11112 14.7778L8.19446 16.4612L8.17779 16.4223V16.4278ZM8.34445 16.8555L9.30001 15.1001L11.75 17.0779L11.6667 17.1445L8.76667 17.9334L8.35002 16.8555H8.34445ZM12 20.2223L9.04446 18.1778L12 17.3778L14.9611 18.1833L12 20.2279V20.2223ZM15.2333 17.9278L12.3334 17.1389L12.25 17.0723L14.7 15.0889L15.6555 16.8501L15.2333 17.9278ZM17.1612 13.3611L15.8278 16.4167L15.8111 16.4612L14.8945 14.7778L14.2222 13.389L15.0556 10.5778L17.4611 11.1889L17.1666 13.3555L17.1612 13.3611ZM17.4777 7.9667L15.4389 9.00555L12.2277 4.47781L12.2223 4.4667H12.2333L14.5222 4.20002L17.4777 6.19447V7.9667ZM20.3222 7.06113L19.4501 5.83892L20.6889 5.61669L20.3222 7.06113ZM18.0889 3.94447L20.2167 4.55558L20.6556 5.31113L19.2445 5.5667L18.0889 3.94447ZM17.7944 6.23892L19.1056 5.9167L20.1445 7.36669L17.7944 8.33342V6.23892ZM19.8056 11.6667L17.7944 10.9723V8.81668L21.0445 9.33896L21.6 10.8167L19.8056 11.6667Z" fill="white"/>
</svg>

<svg xmlns="http://www.w3.org/2000/svg" width="24" height="24" fill="none" viewBox="0 0 24 24">
    <path fill="#fff" d="M21.278 9.056 18.1 8.55l2.428-1 .544-2.15-.639-1.111-3.122-.9L18.9 5.628l.011.016-1.239.3-3.067-2.066-2.6.305-2.6-.305L6.34 5.944l-1.239-.3.006-.016L6.7 3.388l-3.128.895L2.928 5.4l.544 2.15 2.428 1-3.178.506L2 10.972l2.178 1.034 2.055-.712.295 2.156 1.355 3.094.656 1.678 3.183 2.2.278.184v.005h.005l.273-.189 3.183-2.2.661-1.678 1.35-3.094.295-2.156 2.055.712L22 10.972zm-17.495-4.5 2.128-.612-1.155 1.623L3.35 5.31l.433-.761zm-.466 1.066 1.239.228-.873 1.217zm2.889 5.35-2.006.695-1.794-.85.555-1.478 3.245-.522zm0-2.639L3.86 7.367 4.9 5.922l1.306.317zm8.95.84-.306 1h-5.7l-.3-1L12 4.705zm-5.084 4.077-.822-2.767h5.5l-.822 2.767zm3.761.317-1.022 2.65-.806.655-.81-.655-1.023-2.65zM6.528 7.972V6.2l2.955-1.994 2.284.266h.016l-.005.011L8.56 9.011zm1.65 8.456-1.334-3.061-.3-2.167 2.4-.617.834 2.806-.667 1.389-.917 1.683-.016-.039zm.166.427L9.3 15.1l2.45 1.978-.083.067-2.9.788-.417-1.078zM12 20.223l-2.956-2.044 2.956-.8 2.961.805L12 20.228zm3.233-2.294-2.9-.79-.083-.066 2.45-1.983.956 1.761zm1.928-4.567-1.333 3.056-.017.044-.916-1.683-.673-1.389.834-2.811 2.405.61-.294 2.167zm.317-5.394-2.04 1.039-3.21-4.528-.006-.011h.011l2.29-.267 2.955 1.994zm2.844-.906L19.45 5.84l1.239-.222zM18.09 3.944l2.128.612.439.755-1.412.256zm-.295 2.295 1.312-.322 1.038 1.45-2.35.966zm2.012 5.428-2.012-.695V8.817l3.25.522.556 1.478z"/>
</svg>
